lib/flags/s/FJI.svg

<svg xmlns="http://www.w3.org/2000/svg" fill="none" viewBox="0 0 16 12"><mask id="FJI_svg__a" width="16" height="12" x="0" y="0" mask-type="alpha" maskUnits="userSpaceOnUse"><path fill="#fff" d="M0 0H16V12H0z"/></mask><g mask="url(#FJI_svg__a)"><path fill="#67BFE5" fill-rule="evenodd" d="M0 0V12H16V0H0Z" clip-rule="evenodd"/><mask id="FJI_svg__b" width="16" height="12" x="0" y="0" mask-type="alpha" maskUnits="userSpaceOnUse"><path fill="#fff" fill-rule="evenodd" d="M0 0V12H16V0H0Z" clip-rule="evenodd"/></mask><g mask="url(#FJI_svg__b)"><mask id="FJI_svg__c" width="9" height="7" x="0" y="0" mask-type="alpha" maskUnits="userSpaceOnUse"><path fill="#fff" d="M0 0H9V7H0z"/></mask><g mask="url(#FJI_svg__c)"><path fill="#F7FCFF" d="M-1.00214 6.49993L0.978339 7.36853L9.04494 0.944391L10.0896 -0.346375L7.97176 -0.636686L4.68159 2.13166L2.03334 3.99688L-1.00214 6.49993Z"/><path fill="#F50100" d="M-0.731018 7.10849L0.277943 7.61255L9.71445 -0.466309H8.29775L-0.731018 7.10849Z"/><path fill="#F7FCFF" d="M10.0021 6.49993L8.02166 7.36853L-0.0449371 0.944391L-1.08959 -0.346375L1.02824 -0.636686L4.31841 2.13166L6.96666 3.99688L10.0021 6.49993Z"/><path fill="#F50100" d="M9.93457 6.93661L8.92561 7.44067L4.90745 3.9817L3.71615 3.59523L-1.1901 -0.342034H0.226597L5.13009 3.50178L6.43256 3.96519L9.93457 6.93661Z"/><mask id="FJI_svg__d" width="11" height="9" x="-1" y="-1" fill="#000" maskUnits="userSpaceOnUse"><path fill="#fff" d="M-1-1H10V8H-1z"/><path fill-rule="evenodd" d="M4.99226 0H3.99226V3H0V4H3.99226V7H4.99226V4H9V3H4.99226V0Z" clip-rule="evenodd"/></mask><path fill="#F50100" fill-rule="evenodd" d="M4.99226 0H3.99226V3H0V4H3.99226V7H4.99226V4H9V3H4.99226V0Z" clip-rule="evenodd"/><path fill="#F7FCFF" d="M3.99226 0V-0.75H3.24226V0H3.99226ZM4.99226 0H5.74226V-0.75H4.99226V0ZM3.99226 3V3.75H4.74226V3H3.99226ZM0 3V2.25H-0.75V3H0ZM0 4H-0.75V4.75H0V4ZM3.99226 4H4.74226V3.25H3.99226V4ZM3.99226 7H3.24226V7.75H3.99226V7ZM4.99226 7V7.75H5.74226V7H4.99226ZM4.99226 4V3.25H4.24226V4H4.99226ZM9 4V4.75H9.75V4H9ZM9 3H9.75V2.25H9V3ZM4.99226 3H4.24226V3.75H4.99226V3ZM3.99226 0.75H4.99226V-0.75H3.99226V0.75ZM4.74226 3V0H3.24226V3H4.74226ZM0 3.75H3.99226V2.25H0V3.75ZM0.75 4V3H-0.75V4H0.75ZM3.99226 3.25H0V4.75H3.99226V3.25ZM4.74226 7V4H3.24226V7H4.74226ZM4.99226 6.25H3.99226V7.75H4.99226V6.25ZM4.24226 4V7H5.74226V4H4.24226ZM9 3.25H4.99226V4.75H9V3.25ZM8.25 3V4H9.75V3H8.25ZM4.99226 3.75H9V2.25H4.99226V3.75ZM4.24226 0V3H5.74226V0H4.24226Z" mask="url(#FJI_svg__d)"/></g><path fill="#F7FCFF" fill-rule="evenodd" d="M10 5H14.8276V9.16667C14.8276 9.16667 14.4228 11 12.4138 11C10.4048 11 10 9.16667 10 9.16667V5Z" clip-rule="evenodd"/><mask id="FJI_svg__e" width="5" height="6" x="10" y="5" mask-type="alpha" maskUnits="userSpaceOnUse"><path fill="#fff" fill-rule="evenodd" d="M10 5H14.8276V9.16667C14.8276 9.16667 14.4228 11 12.4138 11C10.4048 11 10 9.16667 10 9.16667V5Z" clip-rule="evenodd"/></mask><g mask="url(#FJI_svg__e)"><path fill="#C3352C" d="M10 5H14.828V6.5H10z"/><path fill="#C3352C" d="M12.069 6.333H12.759V11H12.069z"/><path fill="#C3352C" fill-rule="evenodd" d="M10 8.16663H14.8276V8.83329H10V8.16663Z" clip-rule="evenodd"/><path fill="#979797" fill-rule="evenodd" d="M11.2703 10.3685C11.5606 10.7788 11.7971 10.939 11.9643 10.6972C12.0818 10.5272 12.0939 10.3573 11.9265 10.324C11.8294 10.2006 11.7609 10.1043 11.7217 10.0372L11.7274 10.0319C11.7743 9.98626 11.7761 9.92539 11.7668 9.90269C11.7633 9.87163 11.7866 9.82943 11.9374 9.7141C12.0741 9.60964 12.1347 9.51128 12.0451 9.40294C11.998 9.34601 11.9557 9.3346 11.8223 9.31399L11.7813 9.30762C11.7418 9.30128 11.7131 9.29499 11.695 9.28955L11.6022 9.11174C11.4084 9.10582 11.257 9.13998 11.0913 9.20992C11.02 9.24005 10.9719 9.26053 10.9398 9.2742C10.8909 9.295 10.8792 9.30002 10.8788 9.29927C10.8787 9.29903 10.8797 9.29822 10.8811 9.29714C10.8849 9.29411 10.8913 9.28902 10.882 9.28902C10.8471 9.28902 10.8092 9.28509 10.7043 9.27176L10.6837 9.26916C10.3819 9.23125 10.3063 9.23243 10.2574 9.37293C10.183 9.58667 10.6235 9.97846 10.8574 10.0255C10.9745 10.0491 11.1147 10.1612 11.2703 10.3685ZM11.5984 10.0743C11.6268 10.0743 11.6487 10.0731 11.6679 10.0679L11.6738 10.0551C11.6581 10.0657 11.6345 10.0743 11.5984 10.0743ZM10.4971 9.48404C10.4909 9.4768 10.4892 9.46744 10.4935 9.45511C10.4926 9.45765 10.4955 9.46314 10.5013 9.47092C10.5071 9.47859 10.5158 9.48849 10.5269 9.50003C10.5135 9.49619 10.5031 9.49112 10.4971 9.48404ZM10.9067 9.78045C10.8229 9.76358 10.6097 9.58622 10.5269 9.50003C10.5486 9.50625 10.5782 9.50928 10.61 9.51253C10.6239 9.51395 10.6382 9.51541 10.6525 9.51721L10.6728 9.51977C10.7907 9.53475 10.8319 9.53902 10.882 9.53902C10.9109 9.53902 10.905 9.54899 10.9013 9.55505C10.9002 9.55692 10.8993 9.55841 10.8997 9.55912C10.9014 9.56197 10.9242 9.5523 11.0382 9.50394L11.0382 9.50394L11.1886 9.44023C11.2771 9.40286 11.3579 9.37865 11.4466 9.36776C11.4564 9.40963 11.4808 9.44748 11.5205 9.47828C11.5737 9.51958 11.6338 9.53694 11.7373 9.55375C11.6087 9.65953 11.5442 9.74804 11.5238 9.83435C11.4082 9.87092 11.4187 10.0012 11.4881 10.1315C11.5364 10.2223 11.6278 10.351 11.7638 10.5212L11.8615 10.5682C11.8327 10.5682 11.8166 10.555 11.8043 10.5449C11.7889 10.5323 11.7797 10.5247 11.7587 10.555C11.7573 10.557 11.6663 10.4955 11.4723 10.2213C11.2813 9.96673 11.096 9.81856 10.9067 9.78045ZM11.5164 9.93026C11.5181 9.9288 11.518 9.92686 11.5178 9.92491L11.5178 9.92485L11.5164 9.93026ZM11.5963 9.82428L11.5888 9.82439L11.5923 9.82465C11.5937 9.82442 11.595 9.82433 11.5963 9.82428ZM11.5984 9.82425C11.5977 9.82425 11.597 9.82426 11.5963 9.82428L11.5984 9.82425Z" clip-rule="evenodd"/><path stroke="#964C36" stroke-width=".5" d="M10.8275 8.05508C10.8275 8.05508 10.589 7.72507 10.589 7.60742"/><path stroke="#2A8E51" stroke-width=".5" d="M10.6794 7.77131C10.6794 7.77131 10.3744 7.64105 10.3744 7.77131M10.6744 7.63436C10.6744 7.63436 10.4599 7.36145 10.2986 7.36145 10.1373 7.36145 10.1412 7.4979 10.1412 7.4979M10.552 7.36093C10.552 7.36093 10.4562 6.91455 10.3029 6.91455 10.1496 6.91455 10.1496 7.13774 10.1496 7.13774M10.5907 7.36009C10.5907 7.36009 10.548 6.97754 10.7454 6.97754"/><path stroke="#964C36" stroke-width=".5" d="M11.1306 7.99053C11.1306 7.99053 11.0193 7.59883 11.0595 7.48828"/><path stroke="#2A8E51" stroke-width=".5" d="M11.0884 7.67333C11.0884 7.67333 10.8463 7.44661 10.8018 7.56901M11.1305 7.54286C11.1305 7.54286 11.0223 7.21304 10.8707 7.15788 10.7192 7.10272 10.6761 7.23226 10.6761 7.23226M11.109 7.24409C11.109 7.24409 11.1717 6.79188 11.0277 6.73945 10.8836 6.68701 10.8073 6.89674 10.8073 6.89674M11.1457 7.25649C11.1457 7.25649 11.2364 6.8824 11.4219 6.94992"/><path stroke="#964C36" stroke-width=".35" d="M11.376 8.1301C11.376 8.1301 11.5342 7.75489 11.5077 7.64026"/><path stroke="#2A8E51" stroke-width=".35" d="M11.4565 7.8203C11.4565 7.8203 11.7244 7.62477 11.7537 7.75169M11.4306 7.68569C11.4306 7.68569 11.5782 7.37152 11.7353 7.33524 11.8925 7.29896 11.9194 7.43278 11.9194 7.43278M11.4883 7.39178C11.4883 7.39178 11.4812 6.93531 11.6306 6.90082 11.78 6.86633 11.8302 7.0838 11.8302 7.0838M11.4504 7.3996C11.4504 7.3996 11.4059 7.01725 11.2136 7.06166M13.349 7.90084C13.349 7.90084 13.47 7.34412 13.8143 7.34412 14.1586 7.34412 14.3127 7.93232 14.3127 7.93232"/><path stroke="#2A8E51" stroke-width=".35" d="M13.0647 7.52079C13.0647 7.52079 13.2501 7.19194 13.862 7.21883 14.4739 7.24572 14.5855 7.52079 14.5855 7.52079M12.941 7.10262C12.941 7.10262 13.2772 6.68626 13.7482 7.03918L13.9078 7.10262C13.9078 7.10262 14.0679 6.63078 14.841 7.10262"/><path stroke="#964C36" stroke-width=".5" d="M13.8693 8.01844C13.8693 8.01844 13.8938 7.49881 13.9762 7.35608M14.5494 9.15691C14.5494 9.15691 14.2403 9.01155 14.1479 9.15691 14.0554 9.30226 12.9414 10.6378 12.9414 10.6378"/><path fill="#FFF203" fill-rule="evenodd" d="M13.4822 9.29754L14.1726 9.78016C14.1726 9.78016 14.4903 9.55348 14.3315 9.42551C14.1726 9.29754 13.7397 9.0719 13.7397 9.0719L13.4822 9.29754Z" clip-rule="evenodd"/><path fill="#00A651" fill-rule="evenodd" d="M13.4583 9.32227C13.4583 9.32227 13.2984 9.48971 13.2984 9.61768C13.2984 9.74566 13.1495 10.0887 13.1495 10.0887C13.1495 10.0887 13.5657 10.3449 13.6522 10.1817C13.7386 10.0185 14.2999 10.1162 14.2009 9.86696C14.1019 9.61768 13.4583 9.32227 13.4583 9.32227Z" clip-rule="evenodd"/><path fill="#FFD100" fill-rule="evenodd" d="M10.5282 5.59117C10.5282 5.59117 10.8968 5.402 11.0793 5.59117C11.2618 5.78033 11.4113 5.57549 11.4113 5.46138C11.4113 5.34727 11.7011 4.95554 11.7011 5.27335C11.7011 5.59117 11.6109 5.77061 11.8655 5.77061C12.1202 5.77061 13.2671 5.3316 13.5421 5.46138C13.8171 5.59117 14.0276 5.55889 13.9577 5.37267C13.8878 5.18645 13.7081 5.07006 13.3621 5.17171C13.0161 5.27335 13.0978 5.37267 12.7988 5.37267C12.4998 5.37267 12.167 5.27335 12.167 5.27335C12.167 5.27335 12.2604 5.10635 12.6018 5.22514C12.9432 5.34393 13.4141 5.07803 13.5421 5.07803C13.6702 5.07803 14.0226 5.07006 14.0576 5.17171C14.0925 5.27335 14.3053 5.36662 14.1431 5.46138C13.9809 5.55614 13.7134 5.61549 13.8974 5.7369C14.0815 5.85831 14.5047 5.83491 14.5251 5.96119C14.5455 6.08748 14.7461 6.27606 14.6656 6.27606C14.5851 6.27606 14.4396 6.45391 14.3041 6.39976C14.1686 6.34561 14.1527 6.29806 14.2826 6.25419C14.4125 6.21032 14.4113 6.02583 14.3041 6.02583C14.197 6.02583 14.2493 6.09047 14.0053 6.02583C13.7613 5.96119 13.4385 5.88934 13.4579 6.02583C13.4773 6.16232 13.6361 6.37184 13.3431 6.39976C13.05 6.42768 12.9129 6.53979 12.8558 6.44951C12.7988 6.35923 12.5949 6.23893 12.7552 6.20036C12.9155 6.16178 13.0687 6.33148 13.1265 6.30377C13.1842 6.27606 13.3151 6.26064 13.2055 6.14323C13.0959 6.02583 12.9151 5.95671 13.0827 5.86884C13.2502 5.78096 13.118 5.77915 12.7988 5.96119C12.4796 6.14323 12.302 6.29794 12.0217 6.27606C11.7415 6.25419 11.6365 6.2837 11.5464 6.25419C11.4564 6.22468 11.0177 6.58023 10.8913 6.49C10.765 6.39976 10.3572 6.36514 10.4306 6.25419C10.504 6.14323 10.6026 6.08611 10.7124 6.14323C10.8221 6.20036 10.9312 6.25748 11.0053 6.20036C11.0793 6.14323 11.2931 5.94722 11.2393 5.90803C11.1855 5.86884 11.2376 5.7369 10.9331 5.7369C10.6286 5.7369 10.5215 5.88394 10.4492 5.79129C10.377 5.69865 10.5282 5.59117 10.5282 5.59117Z" clip-rule="evenodd"/></g></g></g></svg>

<svg xmlns="http://www.w3.org/2000/svg" fill="none" viewBox="0 0 16 12"><mask id="FJI_svg__a" width="16" height="12" x="0" y="0" maskUnits="userSpaceOnUse"><path fill="#fff" d="M0 0h16v12H0z"/></mask><g mask="url(#FJI_svg__a)"><path fill="#67BFE5" fill-rule="evenodd" d="M0 0v12h16V0H0z" clip-rule="evenodd"/><mask id="FJI_svg__b" width="16" height="12" x="0" y="0" maskUnits="userSpaceOnUse"><path fill="#fff" fill-rule="evenodd" d="M0 0v12h16V0H0z" clip-rule="evenodd"/></mask><g mask="url(#FJI_svg__b)"><mask id="FJI_svg__c" width="9" height="7" x="0" y="0" maskUnits="userSpaceOnUse"><path fill="#fff" d="M0 0h9v7H0z"/></mask><g mask="url(#FJI_svg__c)"><path fill="#F7FCFF" d="M-1.002 6.5l1.98.869L9.045.944l1.045-1.29-2.118-.29-3.29 2.768-2.649 1.865L-1.002 6.5z"/><path fill="#F50100" d="M-.731 7.108l1.009.505 9.437-8.08H8.298L-.731 7.109z"/><path fill="#F7FCFF" d="M10.002 6.5l-1.98.869L-.045.944-1.09-.346l2.118-.29 3.29 2.768 2.649 1.865L10.002 6.5z"/><path fill="#F50100" d="M9.935 6.937l-1.01.504-4.018-3.46-1.19-.386L-1.19-.342H.227L5.13 3.502l1.303.463 3.502 2.972z"/><mask id="FJI_svg__d" width="11" height="9" x="-1" y="-1" fill="#000" maskUnits="userSpaceOnUse"><path fill="#fff" d="M-1-1h11v9H-1z"/><path fill-rule="evenodd" d="M4.992 0h-1v3H0v1h3.992v3h1V4H9V3H4.992V0z" clip-rule="evenodd"/></mask><path fill="#F50100" fill-rule="evenodd" d="M4.992 0h-1v3H0v1h3.992v3h1V4H9V3H4.992V0z" clip-rule="evenodd"/><path fill="#F7FCFF" d="M3.992 0v-.75h-.75V0h.75zm1 0h.75v-.75h-.75V0zm-1 3v.75h.75V3h-.75zM0 3v-.75h-.75V3H0zm0 1h-.75v.75H0V4zm3.992 0h.75v-.75h-.75V4zm0 3h-.75v.75h.75V7zm1 0v.75h.75V7h-.75zm0-3v-.75h-.75V4h.75zM9 4v.75h.75V4H9zm0-1h.75v-.75H9V3zM4.992 3h-.75v.75h.75V3zm-1-2.25h1v-1.5h-1v1.5zM4.742 3V0h-1.5v3h1.5zM0 3.75h3.992v-1.5H0v1.5zM.75 4V3h-1.5v1h1.5zm3.242-.75H0v1.5h3.992v-1.5zM4.742 7V4h-1.5v3h1.5zm.25-.75h-1v1.5h1v-1.5zM4.242 4v3h1.5V4h-1.5zM9 3.25H4.992v1.5H9v-1.5zM8.25 3v1h1.5V3h-1.5zm-3.258.75H9v-1.5H4.992v1.5zM4.242 0v3h1.5V0h-1.5z" mask="url(#FJI_svg__d)"/></g><path fill="#F7FCFF" fill-rule="evenodd" d="M10 5h4.828v4.167S14.423 11 12.414 11C10.404 11 10 9.167 10 9.167V5z" clip-rule="evenodd"/><mask id="FJI_svg__e" width="5" height="6" x="10" y="5" maskUnits="userSpaceOnUse"><path fill="#fff" fill-rule="evenodd" d="M10 5h4.828v4.167S14.423 11 12.414 11C10.404 11 10 9.167 10 9.167V5z" clip-rule="evenodd"/></mask><g mask="url(#FJI_svg__e)"><path fill="#C3352C" d="M10 5h4.828v1.5H10z"/><path fill="#C3352C" d="M12.069 6.333h.69V11h-.69z"/><path fill="#C3352C" fill-rule="evenodd" d="M10 8.167h4.828v.666H10v-.666z" clip-rule="evenodd"/><path fill="#979797" fill-rule="evenodd" d="M11.27 10.368c.29.41.527.571.694.33.118-.17.13-.34-.037-.374a2.778 2.778 0 01-.205-.287l.005-.005c.047-.046.049-.107.04-.13-.004-.03.02-.073.17-.188.137-.104.198-.203.108-.311-.047-.057-.09-.068-.223-.089l-.04-.006a.716.716 0 01-.087-.018l-.093-.178a1.145 1.145 0 00-.51.098l-.152.064c-.05.021-.06.026-.061.025l.002-.002c.004-.003.01-.008.001-.008-.035 0-.073-.004-.178-.017l-.02-.003c-.302-.038-.378-.037-.427.104-.074.214.367.605.6.653.118.023.258.135.413.342zm.328-.294a.27.27 0 00.07-.006l.006-.013a.13.13 0 01-.076.02zm-1.101-.59c-.006-.007-.008-.017-.004-.029 0 .003.002.008.008.016a.348.348 0 00.026.03.061.061 0 01-.03-.017zm.41.296c-.084-.016-.297-.194-.38-.28.022.006.051.01.083.013l.043.004.02.003c.118.015.159.02.209.02.029 0 .023.009.02.015-.002.002-.003.003-.002.004a.758.758 0 00.138-.055l.15-.064a.943.943 0 01.259-.072c.01.042.034.08.073.11a.444.444 0 00.217.076c-.128.106-.193.194-.213.28-.116.037-.105.167-.036.298.048.09.14.219.276.39l.098.046a.083.083 0 01-.058-.023c-.015-.013-.024-.02-.045.01-.002.002-.093-.06-.287-.334-.19-.254-.376-.402-.565-.44zm.61.15v-.005.005zm.08-.106h-.008.007zm.001 0h-.002.002z" clip-rule="evenodd"/><path stroke="#964C36" stroke-width=".5" d="M10.828 8.055s-.239-.33-.239-.448"/><path stroke="#2A8E51" stroke-width=".5" d="M10.68 7.771s-.306-.13-.306 0m.3-.137s-.214-.272-.375-.272c-.162 0-.158.136-.158.136m.411-.137s-.096-.446-.249-.446-.153.223-.153.223m.44.222s-.042-.382.155-.382"/><path stroke="#964C36" stroke-width=".5" d="M11.13 7.99s-.11-.391-.07-.502"/><path stroke="#2A8E51" stroke-width=".5" d="M11.088 7.673s-.242-.226-.286-.104m.328-.026s-.108-.33-.26-.385c-.15-.055-.194.074-.194.074m.434.012s.062-.452-.082-.505c-.144-.052-.22.158-.22.158m.338.36s.09-.375.276-.307"/><path stroke="#964C36" stroke-width=".35" d="M11.376 8.13s.158-.375.132-.49"/><path stroke="#2A8E51" stroke-width=".35" d="M11.457 7.82s.268-.195.297-.068m-.324-.066s.148-.314.305-.35c.158-.037.184.097.184.097m-.431-.041s-.007-.457.143-.491c.149-.035.2.183.2.183m-.381.316s-.044-.383-.236-.338m2.135.838s.121-.556.465-.556c.345 0 .499.588.499.588"/><path stroke="#2A8E51" stroke-width=".35" d="M13.065 7.52s.185-.328.797-.301c.612.027.723.302.723.302m-1.644-.418s.336-.417.807-.064l.16.064s.16-.472.933 0"/><path stroke="#964C36" stroke-width=".5" d="M13.87 8.018s.024-.52.106-.662m.574 1.801s-.31-.145-.402 0c-.093.145-1.207 1.48-1.207 1.48"/><path fill="#FFF203" fill-rule="evenodd" d="M13.482 9.298l.69.482s.318-.226.16-.354c-.16-.128-.592-.354-.592-.354l-.258.226z" clip-rule="evenodd"/><path fill="#00A651" fill-rule="evenodd" d="M13.458 9.322s-.16.168-.16.296c0 .128-.149.47-.149.47s.417.257.503.094c.087-.164.648-.066.549-.315-.1-.25-.743-.545-.743-.545z" clip-rule="evenodd"/><path fill="#FFD100" fill-rule="evenodd" d="M10.528 5.591s.369-.189.551 0c.183.19.332-.016.332-.13s.29-.506.29-.188-.09.498.165.498c.254 0 1.401-.44 1.676-.31.275.13.486.098.416-.088-.07-.187-.25-.303-.596-.201-.346.101-.264.2-.563.2-.3 0-.632-.099-.632-.099s.093-.167.435-.048c.341.119.812-.147.94-.147.128 0 .48-.008.515.094.035.101.248.195.086.29-.162.094-.43.153-.246.275.184.121.608.098.628.224.02.126.221.315.14.315-.08 0-.225.178-.36.124-.136-.054-.152-.102-.022-.146s.128-.228.021-.228-.055.064-.299 0c-.244-.065-.567-.137-.547 0 .02.136.178.346-.115.374-.293.028-.43.14-.487.05-.057-.09-.261-.211-.1-.25.16-.038.313.131.37.104.058-.028.189-.043.08-.16-.11-.118-.29-.187-.123-.275.167-.088.035-.09-.284.092-.32.182-.497.337-.777.315-.28-.022-.386.008-.476-.022-.09-.03-.528.326-.655.236-.126-.09-.534-.125-.46-.236.073-.11.171-.168.281-.11.11.056.22.113.293.056.074-.057.288-.253.234-.292-.054-.04-.002-.171-.306-.171s-.412.147-.484.054c-.072-.092.08-.2.08-.2z" clip-rule="evenodd"/></g></g></g></svg>
